X:121
T: WAS WUENSCHEN WIR DEM HERRN
N: E1185
O: Europa, Mitteleuropa, Deutschland, Mittel - Franken, Ziegelanger
R: Ansinge -, Brauchtums - Lied, Kirchen - Fest, Neujahr, Silvester
M: 4/4
L: 1/16
K: G
G2B2 | d6c2B4A4 | G4B4A4
A2A2 | G2B2B4A4
G2B2 | d6c2B4A4 | G4B4A4z2
d2 | d4d2c2B4A2A2 | G4B4A4z2
G2 | G3GG2e2d6c2 | B2A2B2e2d6
c2 | B2B2A2A2B4A2A2 | B2B2A2A2G6
G2 | G3GG2e2d6c2 | B2A2B2e2d6
c2 | B2B2A2A2B4A2A2 | B2B2A2A2G4

